X:1
T:Title
%%score { ( 1 4 ) | ( 2 3 ) }
L:1/8
M:4/4
K:Db
V:1 treble nm="Grand Piano"
V:4 treble 
V:2 bass 
V:3 bass 
V:1
 z4 z2[Q:1/4=100] [FA]2 | [Fd]2 [Gc][Ad] edBd | A2 [EG]2 F3 A | B[Gc] d2 e2 c2 |[M:3/4] [Fd]6 | %5
[M:1/4] [FA]2 |[M:4/4] [Fd]2 [Gc]d edBd | A2 [EG]2 F3 A | B[Gc]dB A2 e2 | [Fd]6 z2 | d4 B2 GB | %11
 [FA]4 [DF]4 | [Gc]3 [GB] [A,EG]2 [CGB]2 | [DFA]6 z2 | [Fd]3 [Fd] dBGB | [FA]4 F2 z2 | c3 B ABce | %17
[M:3/4] d2- [Gd-]2 [Fd]2 |] %18
V:2
 z4 z2 [D,D]2 | [D,A,]2 E,F, [G,B,G]2 [G,DE][K:treble][=G,B,_F] | %2
 [A,DF]2[K:bass] [C,A,]2 [D,A,D]3 [F,A,D] | [G,D][E,A,] [F,A,F]2 [G,B,E]2 [A,G]2 |[M:3/4] [D,A,]6 | %5
[M:1/4] [D,D]2 |[M:4/4] [D,A,]2 E,[F,F] [G,B,E]2 [G,DE][K:treble][=G,B,_F] | %7
 [A,DF]2[K:bass] [C,A,]2 [D,A,D]3 [F,A,D] | [G,D][E,A,][F,A,F][G,DE][K:treble] [A,DF]2 [A,CG]2 | %9
 [D,D]6 z2 | [G,B,G]4 [G,DG]2 [B,D][DG] | [D,D]4 [D,A,]4 | [A,,A,]3 [A,,A,] C,2 A,,2 | D,6 z2 | %14
 [D,A,]3 [D,_C] [G,B,G][G,DG][G,B,D][G,DG] | [D,D]4 [D,A,D]2 z2 | %16
 [A,G]3 [A,B,G] [A,CG][A,DG][A,EG][A,CG] |[M:3/4][K:bass] z2 B,2 A,2 |] %18
V:3
 x8 | z2 A,2 z4[K:treble] | x2[K:bass] x6 | x8 |[M:3/4] x6 |[M:1/4] x2 | %6
[M:4/4] z2 A,2 z4[K:treble] | x2[K:bass] x6 | x4[K:treble] x4 | x8 | z4 z2 G,2 | x8 | x8 | x8 | %14
 x8 | x8 | x8 |[M:3/4][K:bass] D,6 |] %18
V:4
 x8 | x8 | x8 | x8 |[M:3/4] x6 |[M:1/4] x2 |[M:4/4] x8 | x8 | x8 | x8 | x8 | x8 | x8 | x8 | x8 | %15
 x8 | x8 |[M:3/4] [DF]2 z2 z2 |] %18

